;Generated with Cura_SteamEngine 15.01
; Default start code
G28 ; Home extruder
G1 Z15 F100
M107 ; Turn off fan
G90 ; Absolute positioning
M82 ; Extruder in absolute mode
; Activate all used extruder
M104 T0 S240
G92 E0 ; Reset extruder position
; Wait for all used extruders to reach temperature
M109 T0 S240
;Layer count: 305
;LAYER:0
M107
G0 F9000 X86.449 Y60.200 Z0.300
;TYPE:SKIRT
G1 F1800 X113.547 Y60.200 E1.35192
G1 X113.547 Y139.798 E5.32309
G1 X87.973 Y139.798 E6.59898
G1 X87.947 Y127.033 E7.23583
G1 X87.947 Y121.798 E7.49700
G1 X86.471 Y121.798 E7.57064
G1 X86.449 Y103.855 E8.46582
G1 X86.449 Y60.200 E10.64378
G0 F9000 X86.849 Y60.600
G1 F1800 X113.147 Y60.600 E11.95579
G1 X113.147 Y139.398 E15.88704
G1 X88.372 Y139.398 E17.12307
G1 X88.347 Y127.032 E17.74001
G1 X88.347 Y121.398 E18.02109
G1 X86.871 Y121.398 E18.09473
G1 X86.849 Y103.855 E18.96996
G1 X86.849 Y60.600 E21.12796
G0 F9000 X87.249 Y61.000
G1 F1800 X112.747 Y61.000 E22.40006
G1 X112.747 Y138.998 E26.29139
G1 X88.771 Y138.998 E27.48756
G1 X88.747 Y127.032 E28.08455
G1 X88.747 Y120.998 E28.38558
G1 X87.270 Y120.998 E28.45927
G1 X87.249 Y103.855 E29.31454
G1 X87.249 Y61.000 E31.45259
G0 F9000 X87.649 Y61.400
G1 F1800 X112.347 Y61.400 E32.68477
G1 X112.347 Y138.598 E36.53620
G1 X89.170 Y138.598 E37.69250
G1 X89.147 Y127.032 E38.26953
G1 X89.147 Y120.598 E38.59053
G1 X87.670 Y120.598 E38.66422
G1 X87.649 Y103.854 E39.49958
G1 X87.649 Y61.400 E41.61762
G0 F9000 X88.049 Y61.800
G1 F1800 X111.947 Y61.800 E42.80989
G1 X111.947 Y138.198 E46.62140
G1 X89.570 Y138.198 E47.73780
G1 X89.547 Y127.031 E48.29492
G1 X89.547 Y120.198 E48.63582
G1 X88.069 Y120.198 E48.70956
G1 X88.049 Y103.854 E49.52497
G1 X88.049 Y61.800 E51.62305
G0 F9000 X88.449 Y62.200
G1 F1800 X111.547 Y62.200 E52.77541
G1 X111.547 Y137.798 E56.54701
G1 X89.969 Y137.798 E57.62354
G1 X89.947 Y127.031 E58.16071
G1 X89.947 Y119.798 E58.52157
G1 X88.469 Y119.798 E58.59531
G1 X88.449 Y103.854 E59.39076
G1 X88.449 Y62.200 E61.46888
G0 F9000 X88.849 Y62.600
G1 F1800 X111.147 Y62.600 E62.58133
G1 X111.147 Y137.398 E66.31302
G1 X90.368 Y137.398 E67.34969
G1 X90.347 Y127.030 E67.86695
G1 X90.347 Y119.398 E68.24771
G1 X88.868 Y119.398 E68.32150
G1 X88.849 Y103.854 E69.09700
G1 X88.849 Y62.600 E71.15517
G0 F9000 X89.249 Y63.000
G1 F1800 X110.747 Y63.000 E72.22771
G1 X110.747 Y136.998 E75.91948
G1 X90.767 Y136.998 E76.91629
G1 X90.747 Y127.030 E77.41359
G1 X90.747 Y118.998 E77.81431
G1 X89.268 Y118.998 E77.88810
G1 X89.249 Y103.853 E78.64369
G1 X89.249 Y63.000 E80.68185
G0 F9000 X89.649 Y63.400
G1 F1800 X110.347 Y63.400 E81.71448
G1 X110.347 Y136.598 E85.36634
G1 X91.166 Y136.598 E86.32329
G1 X91.147 Y127.030 E86.80064
G1 X91.147 Y118.598 E87.22131
G1 X89.667 Y118.598 E87.29515
G1 X89.649 Y103.853 E88.03078
G1 X89.649 Y63.400 E90.04899
G0 F9000 X90.049 Y63.800
G1 F1800 X109.947 Y63.800 E91.04170
G1 X109.947 Y136.198 E94.65365
G1 X91.565 Y136.198 E95.57074
G1 X91.547 Y127.029 E96.02818
G1 X91.547 Y118.198 E96.46876
G1 X90.067 Y118.198 E96.54260
G1 X90.049 Y103.853 E97.25827
G1 X90.049 Y63.800 E99.25653
G0 F9000 X90.449 Y64.200
G1 F1800 X109.547 Y64.200 E100.20933
G1 X109.547 Y135.798 E103.78137
G1 X91.965 Y135.798 E104.65854
G1 X91.947 Y127.029 E105.09602
G1 X91.947 Y117.798 E105.55656
G1 X90.466 Y117.798 E105.63045
G1 X90.449 Y103.853 E106.32617
G1 X90.449 Y64.200 E108.30446
G0 F9000 X90.849 Y64.600
G1 F1800 X109.147 Y64.600 E109.21736
G1 X109.147 Y135.398 E112.74948
G1 X92.364 Y135.398 E113.58679
G1 X92.347 Y127.028 E114.00437
G1 X92.347 Y117.398 E114.48481
G1 X90.866 Y117.398 E114.55870
G1 X90.849 Y103.852 E115.23451
G1 X90.849 Y64.600 E117.19280
G0 F9000 X91.249 Y65.000
G1 F1800 X108.747 Y65.000 E118.06578
G1 X108.747 Y134.998 E121.55800
G1 X92.763 Y134.998 E122.35544
G1 X92.747 Y127.028 E122.75307
G1 X92.747 Y116.998 E123.25347
G1 X91.265 Y116.998 E123.32740
G1 X91.249 Y103.852 E123.98326
G1 X91.249 Y65.000 E125.92160
G0 F9000 X91.649 Y65.400
G1 F1800 X108.347 Y65.400 E126.75466
G1 X108.347 Y134.598 E130.20696
G1 X93.162 Y134.598 E130.96455
G1 X93.147 Y127.028 E131.34222
G1 X93.147 Y116.598 E131.86257
G1 X91.665 Y116.598 E131.93651
G1 X91.649 Y103.852 E132.57241
G1 X91.649 Y65.400 E134.49079
G0 F9000 X92.049 Y65.800
G1 F1800 X107.947 Y65.800 E135.28394
G1 X107.947 Y134.198 E138.69633
G1 X93.561 Y134.198 E139.41405
G1 X93.547 Y127.027 E139.77182
G1 X93.547 Y116.198 E140.31208
G1 X92.064 Y116.198 E140.38606
G1 X92.049 Y103.852 E141.00201
G1 X92.049 Y65.800 E142.90043
G0 F9000 X92.449 Y66.200
G1 F1800 X107.547 Y66.200 E143.65367
G1 X107.547 Y133.798 E147.02615
G1 X93.961 Y133.798 E147.70396
G1 X93.947 Y127.027 E148.04177
G1 X93.947 Y115.798 E148.60198
G1 X92.464 Y115.798 E148.67597
G1 X92.449 Y103.851 E149.27201
G1 X92.449 Y66.200 E151.15043
G0 F9000 X92.849 Y66.600
G1 F1800 X107.147 Y66.600 E151.86376
G1 X107.147 Y133.398 E155.19632
G1 X94.360 Y133.398 E155.83427
G1 X94.347 Y127.026 E156.15217
G1 X94.347 Y115.398 E156.73229
G1 X92.863 Y115.398 E156.80633
G1 X92.849 Y103.851 E157.38241
G1 X92.849 Y66.600 E159.24087
G0 F9000 X93.249 Y67.000
G1 F1800 X106.747 Y67.000 E159.91429
G1 X106.747 Y132.998 E163.20694
G1 X94.759 Y132.998 E163.80503
G1 X94.747 Y127.026 E164.10297
G1 X94.747 Y114.998 E164.70305
G1 X93.263 Y114.998 E164.77709
G1 X93.249 Y103.851 E165.33321
G1 X93.249 Y67.000 E167.17172
G0 F9000 X93.649 Y67.400
G1 F1800 X106.347 Y67.400 E167.80522
G1 X106.347 Y132.598 E171.05797
G1 X95.158 Y132.598 E171.61619
G1 X95.147 Y127.026 E171.89418
G1 X95.147 Y114.598 E172.51421
G1 X93.662 Y114.598 E172.58830
G1 X93.649 Y103.851 E173.12447
G1 X93.649 Y67.400 E174.94302
G0 F9000 X94.049 Y67.800
G1 F1800 X105.947 Y67.800 E175.53661
G1 X105.947 Y132.198 E178.74944
G1 X95.557 Y132.198 E179.26780
G1 X95.547 Y127.025 E179.52588
G1 X95.547 Y114.198 E180.16582
G1 X94.062 Y114.198 E180.23991
G1 X94.049 Y103.850 E180.75617
G1 X94.049 Y67.800 E182.55472
G0 F9000 X94.449 Y68.200
G1 F1800 X105.547 Y68.200 E183.10840
G1 X105.547 Y131.798 E186.28131
G1 X95.957 Y131.798 E186.75976
G1 X95.947 Y127.025 E186.99789
G1 X95.947 Y113.798 E187.65779
G1 X94.461 Y113.798 E187.73192
G1 X94.449 Y103.850 E188.22823
G1 X94.449 Y68.200 E190.00682
G0 F9000 X94.849 Y68.600
G1 F1800 X105.147 Y68.600 E190.52059
G1 X105.147 Y131.398 E193.65359
G1 X96.356 Y131.398 E194.09218
G1 X96.347 Y127.024 E194.31040
G1 X96.347 Y113.398 E194.99020
G1 X94.861 Y113.398 E195.06434
G1 X94.849 Y103.850 E195.54069
G1 X94.849 Y68.600 E197.29932
G0 F9000 X95.249 Y69.000
G1 F1800 X104.747 Y69.000 E197.77318
G1 X104.747 Y112.998 E199.96824
G1 X95.260 Y112.998 E200.44155
G1 X95.249 Y103.850 E200.89795
G1 X95.249 Y69.000 E202.63662
G0 F9000 X95.648 Y69.400
G1 F1800 X104.347 Y69.400 E203.07062
G1 X104.347 Y112.598 E205.22577
G1 X95.660 Y112.598 E205.65917
G1 X95.648 Y69.400 E207.81433
G0 F9000 X96.049 Y69.800
G1 F1800 X103.947 Y69.800 E208.20836
G1 X103.947 Y112.198 E210.32360
G1 X96.059 Y112.198 E210.71714
G1 X96.049 Y69.800 E212.83238
G0 F9000 X96.747 Y113.000
G1 F1800 X104.747 Y113.000 E213.23151
G1 X104.747 Y130.998 E214.12943
G1 X96.755 Y130.998 E214.52815
G1 X96.747 Y127.024 E214.72642
G1 X96.747 Y113.000 E215.42608
G0 F9000 X97.147 Y113.400
G1 F1800 X104.347 Y113.400 E215.78529
G1 X104.347 Y130.598 E216.64330
G1 X97.154 Y130.598 E217.00216
G1 X97.147 Y127.024 E217.18047
G1 X97.147 Y113.400 E217.86017
G0 F9000 X97.547 Y113.800
G1 F1800 X103.947 Y113.800 E218.17947
G1 X103.947 Y130.198 E218.99757
G1 X97.553 Y130.198 E219.31656
G1 X97.547 Y113.800 E220.13466
G1 F2400 E216.13466
G0 F9000 X96.859 Y111.398
;TYPE:WALL-INNER
G1 F2400 E220.13466
G1 F1800 X96.849 Y70.600 E222.17008
G1 X103.147 Y70.600 E222.48429
G1 X103.147 Y111.398 E224.51971
G1 X96.859 Y111.398 E224.83342
G0 F9000 X96.459 Y111.798
;TYPE:WALL-OUTER
G1 F1800 X96.449 Y70.200 E226.90876
G1 X103.547 Y70.200 E227.26288
G1 X103.547 Y111.798 E229.33821
G1 X96.459 Y111.798 E229.69183
G0 F9000 X97.397 Y111.256
;TYPE:SKIN
G1 F1800 X96.998 Y110.857 E229.71998
G0 F9000 X96.998 Y110.291
G1 F1800 X97.963 Y111.256 E229.78807
G0 F9000 X98.528 Y111.256
G1 F1800 X96.998 Y109.726 E229.89602
G0 F9000 X96.998 Y109.160
G1 F1800 X99.094 Y111.256 E230.04390
G0 F9000 X99.660 Y111.256
G1 F1800 X96.998 Y108.594 E230.23172
G0 F9000 X96.997 Y108.028
G1 F1800 X100.226 Y111.256 E230.45951
G0 F9000 X100.791 Y111.256
G1 F1800 X96.997 Y107.462 E230.72720
G0 F9000 X96.997 Y106.896
G1 F1800 X101.357 Y111.256 E231.03482
G0 F9000 X101.923 Y111.256
G1 F1800 X96.997 Y106.331 E231.38234
G0 F9000 X96.996 Y105.764
G1 F1800 X102.488 Y111.256 E231.76983
G0 F9000 X103.007 Y111.209
G1 F1800 X96.996 Y105.199 E232.19390
G0 F9000 X96.996 Y104.633
G1 F1800 X103.007 Y110.643 E232.61797
G0 F9000 X103.007 Y110.078
G1 F1800 X96.996 Y104.067 E233.04208
G0 F9000 X96.996 Y103.502
G1 F1800 X103.007 Y109.512 E233.46616
G0 F9000 X103.007 Y108.946
G1 F1800 X96.995 Y102.935 E233.89030
G0 F9000 X96.995 Y102.369
G1 F1800 X103.007 Y108.381 E234.31448
G0 F9000 X103.007 Y107.815
G1 F1800 X96.995 Y101.804 E234.73862
G0 F9000 X96.995 Y101.238
G1 F1800 X103.007 Y107.249 E235.16277
G0 F9000 X103.007 Y106.684
G1 F1800 X96.995 Y100.672 E235.58695
G0 F9000 X96.995 Y100.106
G1 F1800 X103.007 Y106.118 E236.01113
G0 F9000 X103.007 Y105.552
G1 F1800 X96.995 Y99.540 E236.43530
G0 F9000 X96.995 Y98.975
G1 F1800 X103.007 Y104.986 E236.85945
G0 F9000 X103.007 Y104.421
G1 F1800 X96.995 Y98.409 E237.28363
G0 F9000 X96.995 Y97.843
G1 F1800 X103.007 Y103.855 E237.70781
G0 F9000 X103.007 Y103.289
G1 F1800 X96.994 Y97.277 E238.13202
G0 F9000 X96.994 Y96.711
G1 F1800 X103.007 Y102.724 E238.55627
G0 F9000 X103.007 Y102.158
G1 F1800 X96.994 Y96.146 E238.98048
G0 F9000 X96.994 Y95.580
G1 F1800 X103.007 Y101.592 E239.40470
G0 F9000 X103.007 Y101.027
G1 F1800 X96.993 Y95.013 E239.82902
G0 F9000 X96.993 Y94.448
G1 F1800 X103.007 Y100.461 E240.25330
G0 F9000 X103.007 Y99.895
G1 F1800 X96.993 Y93.882 E240.67759
G0 F9000 X96.993 Y93.316
G1 F1800 X103.007 Y99.330 E241.10191
G0 F9000 X103.007 Y98.764
G1 F1800 X96.993 Y92.751 E241.52619
G0 F9000 X96.993 Y92.184
G1 F1800 X103.007 Y98.198 E241.95051
G0 F9000 X103.007 Y97.633
G1 F1800 X96.993 Y91.619 E242.37483
G0 F9000 X96.993 Y91.053
G1 F1800 X103.007 Y97.067 E242.79915
G0 F9000 X103.007 Y96.501
G1 F1800 X96.993 Y90.487 E243.22347
G0 F9000 X96.993 Y89.922
G1 F1800 X103.007 Y95.936 E243.64779
G0 F9000 X103.007 Y95.370
G1 F1800 X96.992 Y89.355 E244.07219
G0 F9000 X96.992 Y88.789
G1 F1800 X103.007 Y94.804 E244.49658
G0 F9000 X103.007 Y94.238
G1 F1800 X96.992 Y88.224 E244.92093
G0 F9000 X96.992 Y87.658
G1 F1800 X103.007 Y93.673 E245.34532
G0 F9000 X103.007 Y93.107
G1 F1800 X96.992 Y87.092 E245.76971
G0 F9000 X96.991 Y86.526
G1 F1800 X103.007 Y92.541 E246.19414
G0 F9000 X103.007 Y91.976
G1 F1800 X96.991 Y85.960 E246.61860
G0 F9000 X96.991 Y85.395
G1 F1800 X103.007 Y91.410 E247.04303
G0 F9000 X103.007 Y90.844
G1 F1800 X96.991 Y84.829 E247.46745
G0 F9000 X96.991 Y84.263
G1 F1800 X103.007 Y90.279 E247.89191
G0 F9000 X103.007 Y89.713
G1 F1800 X96.991 Y83.697 E248.31638
G0 F9000 X96.991 Y83.131
G1 F1800 X103.007 Y89.147 E248.74084
G0 F9000 X103.007 Y88.582
G1 F1800 X96.991 Y82.566 E249.16530
G0 F9000 X96.991 Y82.000
G1 F1800 X103.007 Y88.016 E249.58976
G0 F9000 X103.007 Y87.450
G1 F1800 X96.990 Y81.433 E250.01429
G0 F9000 X96.990 Y80.868
G1 F1800 X103.007 Y86.885 E250.43882
G0 F9000 X103.007 Y86.319
G1 F1800 X96.990 Y80.302 E250.86335
G0 F9000 X96.990 Y79.736
G1 F1800 X103.007 Y85.753 E251.28789
G0 F9000 X103.007 Y85.187
G1 F1800 X96.990 Y79.171 E251.71238
G0 F9000 X96.989 Y78.604
G1 F1800 X103.007 Y84.622 E252.13699
G0 F9000 X103.007 Y84.056
G1 F1800 X96.989 Y78.039 E252.56155
G0 F9000 X96.989 Y77.473
G1 F1800 X103.007 Y83.490 E252.98612
G0 F9000 X103.007 Y82.925
G1 F1800 X96.989 Y76.907 E253.41072
G0 F9000 X96.989 Y76.342
G1 F1800 X103.007 Y82.359 E253.83529
G0 F9000 X103.007 Y81.793
G1 F1800 X96.988 Y75.775 E254.25993
G0 F9000 X96.988 Y75.209
G1 F1800 X103.007 Y81.228 E254.68460
G0 F9000 X103.007 Y80.662
G1 F1800 X96.988 Y74.644 E255.10924
G0 F9000 X96.988 Y74.078
G1 F1800 X103.007 Y80.096 E255.53388
G0 F9000 X103.007 Y79.531
G1 F1800 X96.988 Y73.512 E255.95855
G0 F9000 X96.988 Y72.946
G1 F1800 X103.007 Y78.965 E256.38322
G0 F9000 X103.007 Y78.399
G1 F1800 X96.988 Y72.380 E256.80789
G0 F9000 X96.988 Y71.815
G1 F1800 X103.007 Y77.834 E257.23257
G0 F9000 X103.007 Y77.268
G1 F1800 X96.988 Y71.249 E257.65724
G0 F9000 X97.044 Y70.740
G1 F1800 X103.007 Y76.702 E258.07793
G0 F9000 X103.007 Y76.137
G1 F1800 X97.610 Y70.740 E258.45871
G0 F9000 X98.176 Y70.740
G1 F1800 X103.007 Y75.571 E258.79957
G0 F9000 X103.007 Y75.005
G1 F1800 X98.741 Y70.740 E259.10052
G0 F9000 X99.307 Y70.740
G1 F1800 X103.007 Y74.439 E259.36154
G0 F9000 X103.007 Y73.874
G1 F1800 X99.873 Y70.740 E259.58266
G0 F9000 X100.438 Y70.740
G1 F1800 X103.007 Y73.308 E259.76388
G0 F9000 X103.007 Y72.742
G1 F1800 X101.004 Y70.740 E259.90517
G0 F9000 X101.570 Y70.740
G1 F1800 X103.007 Y72.177 E260.00656
G0 F9000 X103.007 Y71.611
G1 F1800 X102.135 Y70.740 E260.06805
G0 F9000 X102.701 Y70.740
G1 F1800 X103.007 Y71.045 E260.08960
G1 F2400 E256.08960
G0 F9000 X103.147 Y114.600
;TYPE:WALL-INNER
G1 F2400 E260.08960
G1 F1800 X103.147 Y129.398 E260.82788
G1 X98.352 Y129.398 E261.06710
G1 X98.347 Y127.023 E261.18559
G1 X98.347 Y114.600 E261.80538
G1 X103.147 Y114.600 E262.04485
G0 F9000 X103.547 Y114.200
;TYPE:WALL-OUTER
G1 F1800 X103.547 Y129.798 E262.82304
G1 X97.953 Y129.798 E263.10212
G1 X97.947 Y114.200 E263.88031
G1 X103.547 Y114.200 E264.15970
G0 F9000 X103.007 Y115.169
;TYPE:SKIN
G1 F1800 X102.577 Y114.739 E264.19003
G0 F9000 X102.011 Y114.739
G1 F1800 X103.007 Y115.734 E264.26027
G0 F9000 X103.007 Y116.300
G1 F1800 X101.445 Y114.739 E264.37044
G0 F9000 X100.880 Y114.739
G1 F1800 X103.007 Y116.866 E264.52052
G0 F9000 X103.007 Y117.432
G1 F1800 X100.314 Y114.739 E264.71052
G0 F9000 X99.748 Y114.739
G1 F1800 X103.007 Y117.997 E264.94043
G0 F9000 X103.007 Y118.563
G1 F1800 X99.183 Y114.739 E265.21023
G0 F9000 X98.617 Y114.739
G1 F1800 X103.007 Y119.129 E265.51997
G0 F9000 X103.007 Y119.694
G1 F1800 X98.487 Y115.174 E265.83888
G0 F9000 X98.487 Y115.740
G1 F1800 X103.007 Y120.260 E266.15779
G0 F9000 X103.007 Y120.826
G1 F1800 X98.487 Y116.306 E266.47670
G0 F9000 X98.487 Y116.872
G1 F1800 X103.007 Y121.391 E266.79557
G0 F9000 X103.007 Y121.957
G1 F1800 X98.487 Y117.438 E267.11445
G0 F9000 X98.487 Y118.004
G1 F1800 X103.007 Y122.523 E267.43332
G0 F9000 X103.007 Y123.088
G1 F1800 X98.487 Y118.569 E267.75220
G0 F9000 X98.488 Y119.136
G1 F1800 X103.007 Y123.654 E268.07100
G0 F9000 X103.007 Y124.220
G1 F1800 X98.488 Y119.701 E268.38984
G0 F9000 X98.488 Y120.267
G1 F1800 X103.007 Y124.785 E268.70865
G0 F9000 X103.007 Y125.351
G1 F1800 X98.488 Y120.833 E269.02745
G0 F9000 X98.489 Y121.399
G1 F1800 X103.007 Y125.917 E269.34622
G0 F9000 X103.007 Y126.483
G1 F1800 X98.489 Y121.965 E269.66499
G0 F9000 X98.489 Y122.530
G1 F1800 X103.007 Y127.048 E269.98376
G0 F9000 X103.007 Y127.614
G1 F1800 X98.490 Y123.097 E270.30246
G0 F9000 X98.490 Y123.663
G1 F1800 X103.007 Y128.180 E270.62116
G0 F9000 X103.007 Y128.745
G1 F1800 X98.490 Y124.228 E270.93986
G0 F9000 X98.490 Y124.794
G1 F1800 X102.952 Y129.256 E271.25468
G0 F9000 X102.386 Y129.256
G1 F1800 X98.490 Y125.360 E271.52956
G0 F9000 X98.490 Y125.926
G1 F1800 X101.821 Y129.256 E271.76454
G0 F9000 X101.255 Y129.256
G1 F1800 X98.490 Y126.492 E271.95959
G0 F9000 X98.490 Y127.057
G1 F1800 X100.689 Y129.256 E272.11475
G0 F9000 X100.124 Y129.256
G1 F1800 X98.491 Y127.624 E272.22993
G0 F9000 X98.491 Y128.189
G1 F1800 X99.558 Y129.256 E272.30521
G0 F9000 X98.992 Y129.256
G1 F1800 X98.491 Y128.755 E272.34056
;LAYER:1
M106 S63
G1 F2400 E268.34056
G0 F9000 X96.849 Y111.398 Z0.500
;TYPE:WALL-INNER
G1 F2400 E272.34056
G1 F2220 X96.849 Y70.600 E273.69751
G1 X103.147 Y70.600 E273.90698
G1 X103.147 Y111.398 E275.26392
G1 X96.849 Y111.398 E275.47340
G0 F9000 X96.449 Y111.798
;TYPE:WALL-OUTER
G1 F1980 X96.449 Y70.200 E276.85695
G1 X103.547 Y70.200 E277.09303
G1 X103.547 Y111.798 E278.47659
G1 X96.449 Y111.798 E278.71267
G0 F9000 X97.197 Y111.257
;TYPE:SKIN
